X:1
T:Bow Brickhill, LM
T:Bow Brickhill, LM
T:Sydney Hugo Nicholson, 1924 & 1939
T:© 1939 Hymns Ancient &amp; Modern (Admin. Hope Publishing Company) Courtesy of the Cyber Hymnal™
C:Sydney Hugo Nicholson, 1924 & 1939
Z:© 1939 Hymns Ancient & Modern (Admin. Hope Publishing Company)
Z:Courtesy of the Cyber Hymnal™
%%score ( 1 2 ) ( 3 4 )
L:1/8
Q:1/4=120
M:3/4
K:C
V:1 treble 
V:2 treble 
V:3 bass 
V:4 bass 
V:1
 [Gc]2 | (B2 A2) [Ec]2 | G4 [FA]2 | (E2 F2) [B,D]2 | C4 [G,C]2 | [DF]4 E2 | A4 [DG]2 | c4 [^Fd]2 | %8
 G4 G2 | [Gc]4 [FA]2 | [DG]4 (GA) | (_B2 d2) (cB) | A4 G2 | e4 [FB]2 | ([Fd]2 [Ec]2) [FA]2 | %15
 ([EG]2 [CE]2) [B,D]2 | C4 |] %17
V:2
 x2 | F4 x2 | (D2 C2) x2 | C4 x2 | (^B,2 A,2) x2 | x4 E2 | (E2 D2) x2 | (G2 AG) x2 | G4 G2 | x6 | %10
 x4 G2 | F4 G2 | (G2 F2) (ED) | (E2 F2) x2 | x6 | x6 | C4 |] %17
V:3
 [C,E]2 | [D,D]4 [E,C]2 | ([F,B,]2 [E,C]2) [D,C]2 | (C2 A,2) [G,,F,]2 | [A,,E,]4 [_B,,E,]2 | %5
 ([A,,F,]2 [A,C]2) [G,B,]2 | [F,A,]4 B,2 | [E,C]4 [D,C]2 | [G,B,]4 B,2 | (C2 E2) (DC) | %10
 B,4 [E,C]2 | (D2 _B,2) [E,G,]2 | [F,C]4 [G,B,]2 | [C,C]4 [G,D]2 | (B,2 C2) [D,F,]2 | %15
 ([E,G,]2 [F,A,]2) [G,,F,]2 | [C,E,]4 |] %17
V:4
 x2 | x6 | x6 | G,4 x2 | x6 | x6 | x4 (G,F,) | x6 | x4 (G,F,) | E,4 F,2 | (G,2 F,2) x2 | D,4 x2 | %12
 x6 | x6 | A,4 x2 | x6 | x4 |] %17

